X:1
T:The Derby Ram
M:6/8
L:1/8
K:G
 D| G2 G FFA| G3 B,2 C| D2 E D2 E| D3- D2 B| B2 G G2 G| c3 B2 A| GAG GFE|\
 D3 B,2 D| G3 E2 G| A3 G2 B| d2 dc-B A| G3- G2||
